brandFactory_export/2.Regular/Coche_2Regular.svg

<?xml version="1.0" encoding="UTF-8"?>
<svg width="24px" height="24px" viewBox="0 0 24 24" version="1.1" xmlns="http://www.w3.org/2000/svg" xmlns:xlink="http://www.w3.org/1999/xlink">
    <title>2.Regular/Coche_2Regular</title>
    <g id="Symbols" stroke="none" stroke-width="1" fill="none" fill-rule="evenodd">
        <g id="2.Regular/Coche_2Regular" fill="#5CB615" fill-rule="nonzero">
            <path d="M21.9226891,15.0336134 L19.4084034,15.0336134 C19.1361345,13.5714286 18.010084,12.6907563 16.3260504,12.6907563 C14.6420168,12.6907563 13.512605,13.5714286 13.2436975,15.0336134 L9.14957983,15.0336134 C8.88067227,13.5680672 7.7512605,12.6806723 6.06386555,12.6806723 C4.37647059,12.6806723 3.24705882,13.5680672 2.97815126,15.0336134 L1.54957983,15.0336134 C1.49243697,14.5932773 1.44201681,13.9042017 1.49243697,13.0436975 C1.48571429,12.0218487 2.24537815,10.2369748 3.71764706,8.80168067 C4.82016807,7.72268908 6.7394958,6.44201681 9.61008403,6.44201681 C15.0252101,6.44201681 17.2369748,9.86386555 17.3243697,10.005042 C17.4521008,10.210084 17.6739496,10.3378151 17.9159664,10.3512605 C18.0168067,10.3546218 20.3831933,10.5193277 21.6235294,12.6 C22.4134454,13.9243697 22.1344538,14.707563 21.9226891,15.0336134 M16.3260504,17.3663866 C15.1966387,17.3663866 14.6521008,16.8352941 14.6521008,15.7428571 C14.6521008,14.6504202 15.2,14.1193277 16.3260504,14.1193277 C17.4521008,14.1193277 18,14.6504202 18,15.7428571 C18,16.8352941 17.4521008,17.3663866 16.3260504,17.3663866 M6.06386555,17.3596639 C4.93445378,17.3596639 4.38991597,16.8285714 4.38991597,15.7361345 C4.38991597,14.6403361 4.93781513,14.1092437 6.06386555,14.1092437 C7.18991597,14.1092437 7.74117647,14.6403361 7.74117647,15.7361345 C7.73781513,16.8285714 7.18991597,17.3596639 6.06386555,17.3596639 M22.9008403,11.887395 C21.5731092,9.65546218 19.2840336,9.10084034 18.3798319,8.96638655 C17.6436975,7.98487395 14.9714286,5.01344538 9.61344538,5.01344538 C6.23529412,5.01344538 3.97647059,6.52605042 2.67563025,7.79663866 C0.826890756,9.59831933 0.0100840336,11.7361345 0.0235294118,13.010084 C-0.0806722689,14.7277311 0.201680672,15.8705882 0.211764706,15.9210084 C0.299159664,16.2436975 0.591596639,16.4689076 0.927731092,16.4655462 L2.98823529,16.4655462 C3.26386555,17.9142857 4.38991597,18.7882353 6.06386555,18.7882353 C7.74117647,18.7882353 8.86386555,17.9142857 9.14285714,16.4655462 L13.2470588,16.4655462 C13.5193277,17.9210084 14.6487395,18.7983193 16.3294118,18.7983193 C18.010084,18.7983193 19.1327731,17.9210084 19.4084034,16.4655462 L22.2655462,16.4655462 C22.4436975,16.4655462 22.6151261,16.405042 22.7462185,16.2907563 C22.8235294,16.2235294 24.5781513,14.697479 22.9008403,11.887395" id="Coche_2Regular"></path>
        </g>
    </g>
</svg>

<svg width="24" height="24" viewBox="0 0 24 24" xmlns="http://www.w3.org/2000/svg"><path d="M21.923 15.034h-2.515c-.272-1.463-1.398-2.343-3.082-2.343s-2.813.88-3.082 2.343H9.15c-.27-1.466-1.399-2.353-3.086-2.353-1.688 0-2.817.887-3.086 2.353H1.55c-.058-.44-.108-1.13-.058-1.99-.006-1.022.753-2.807 2.226-4.242 1.102-1.08 3.021-2.36 5.892-2.36 5.415 0 7.627 3.422 7.714 3.563.128.205.35.333.592.346.1.004 2.467.168 3.708 2.249.79 1.324.51 2.108.299 2.434m-5.597 2.332c-1.13 0-1.674-.53-1.674-1.623s.548-1.624 1.674-1.624S18 14.65 18 15.743c0 1.092-.548 1.623-1.674 1.623M6.064 17.36c-1.13 0-1.674-.531-1.674-1.624 0-1.096.548-1.627 1.674-1.627s1.677.531 1.677 1.627c-.003 1.093-.551 1.624-1.677 1.624M22.9 11.887c-1.328-2.232-3.617-2.786-4.521-2.92-.736-.982-3.409-3.954-8.767-3.954-3.378 0-5.637 1.513-6.937 2.784C.826 9.598.01 11.737.024 13.01c-.105 1.718.178 2.86.188 2.911.087.323.38.548.716.545h2.06c.276 1.448 1.402 2.322 3.076 2.322 1.677 0 2.8-.874 3.079-2.322h4.104c.272 1.455 1.402 2.332 3.082 2.332 1.681 0 2.804-.877 3.08-2.332h2.857a.73.73 0 00.48-.175c.078-.067 1.832-1.594.155-4.404" fill="#5CB615" fill-rule="nonzero"/></svg>
